_build/components/_footer-goop.svg

<svg class="u-max-full-width no-box-shadow" viewBox="0 0 1650 500" version="1.1" xmlns="http://www.w3.org/2000/svg" xmlns:xlink="http://www.w3.org/1999/xlink">
  <!-- Generator: Sketch 54.1 (76490) - https://sketchapp.com -->
  <g stroke="none" stroke-width="1" fill="none" fill-rule="evenodd">
    <g fill-rule="nonzero">
      <path d="M1250,-8.52651283e-14 L1300,-8.52651283e-14 L1350,5.68434189e-14 L1400,1.70530257e-13 L1450,5.68434189e-14 L1500,1.56319402e-13 L1550,5.68434189e-14 L1600,2.84217094e-14 L1650,5.68434189e-14 L1650,236.737776 C1650,250.257706 1639.03993,261.217775 1625.52,261.217775 L1624.48,261.217775 C1610.96007,261.217775 1600,250.257706 1600,236.737776 L1600,147.479999 C1600,133.960069 1589.03993,123 1575.52,123 L1574.48,123 C1560.96007,123 1550,133.960069 1550,147.479999 L1550,150.622026 C1550,164.141956 1539.03993,175.102025 1525.52,175.102025 L1524.48,175.102025 C1510.96007,175.102025 1500,164.141956 1500,150.622026 L1500,120.74659 C1500,107.226661 1489.03993,96.2665919 1475.52,96.2665919 L1474.48,96.2665919 C1460.96007,96.2665919 1450,107.226661 1450,120.74659 L1450,236.737776 C1450,250.257706 1439.03993,261.217775 1425.52,261.217775 L1424.48,261.217775 C1410.96007,261.217775 1400,250.257706 1400,236.737776 L1400,142.379532 C1400,128.859603 1389.03993,117.899534 1375.52,117.899534 L1374.48,117.899534 C1360.96007,117.899534 1350,128.859603 1350,142.379532 L1350,196.550426 C1350,210.070356 1339.03993,221.030425 1325.52,221.030425 L1324.48,221.030425 C1310.96007,221.030425 1300,210.070356 1300,196.550426 L1300,185.645417 C1300,172.125487 1289.03993,161.165418 1275.52,161.165418 L1274.48,161.165418 C1260.96007,161.165418 1250,172.125487 1250,185.645417 L1250,274.054601 C1250,287.574531 1239.03993,298.5346 1225.52,298.5346 L1224.48,298.5346 C1210.96007,298.5346 1200,287.574531 1200,274.054601 L1200,142.379532 C1200,128.859603 1189.03993,117.899534 1175.52,117.899534 L1174.48,117.899534 C1160.96007,117.899534 1150,128.859603 1150,142.379532 L1150,150.622026 C1150,164.141956 1139.03993,175.102025 1125.52,175.102025 L1124.48,175.102025 C1110.96007,175.102025 1100,164.141956 1100,150.622026 L1100,99.1136485 C1100,85.5937186 1089.03993,74.6336499 1075.52,74.6336499 L1074.48,74.6336499 C1060.96007,74.6336499 1050,85.5937186 1050,99.1136485 L1050,236.737776 C1050,250.257706 1039.03993,261.217775 1025.52,261.217775 L1024.48,261.217775 C1010.96007,261.217775 1000,250.257706 1000,236.737776 L1000,133.726356 C1000,120.206426 989.039931,109.246357 975.520001,109.246357 L974.479999,109.246357 C960.960069,109.246357 950,120.206426 950,133.726356 L950,196.550426 C950,210.070356 939.039931,221.030425 925.520001,221.030425 L924.479999,221.030425 C910.960069,221.030425 900,210.070356 900,196.550426 L900,120.74659 C900,107.226661 889.039931,96.2665919 875.520001,96.2665919 L874.479999,96.2665919 C860.960069,96.2665919 850,107.226661 850,120.74659 L850,162.104126 C850,175.624056 839.039931,186.584125 825.520001,186.584125 L824.479999,186.584125 C810.960069,186.584125 800,175.624056 800,162.104126 L800,164.012475 C800,150.492545 789.039931,139.532476 775.520001,139.532476 L774.479999,139.532476 C760.960069,139.532476 750,150.492545 750,164.012475 L750,236.737776 C750,250.257706 739.039931,261.217775 725.520001,261.217775 L724.479999,261.217775 C710.960069,261.217775 700,250.257706 700,236.737776 L700,99.1136485 C700,85.5937186 689.039931,74.6336499 675.520001,74.6336499 L674.479999,74.6336499 C660.960069,74.6336499 650,85.5937186 650,99.1136485 L650,179.327276 C650,192.847206 639.039931,203.807275 625.520001,203.807275 L624.479999,203.807275 C610.960069,203.807275 600,192.847206 600,179.327276 L600,120.74659 C600,107.226661 589.039931,96.2665919 575.520001,96.2665919 L574.479999,96.2665919 C560.960069,96.2665919 550,107.226661 550,120.74659 L550,136.269401 C550,149.789331 539.039931,160.7494 525.520001,160.7494 L524.479999,160.7494 C510.960069,160.7494 500,149.789331 500,136.269401 L500,99.1136485 C500,85.5937186 489.039931,74.6336499 475.520001,74.6336499 L474.479999,74.6336499 C460.960069,74.6336499 450,85.5937186 450,99.1136485 L450,265.443026 C450,278.962956 439.039931,289.923025 425.520001,289.923025 L424.479999,289.923025 C410.960069,289.923025 400,278.962956 400,265.443026 L400,164.012475 C400,150.492545 389.039931,139.532476 375.520001,139.532476 L374.479999,139.532476 C360.960069,139.532476 350,150.492545 350,164.012475 L350,182.197801 C350,195.717731 339.039931,206.6778 325.520001,206.6778 L324.479999,206.6778 C310.960069,206.6778 300,195.717731 300,182.197801 L300,99.1136485 C300,85.5937186 289.039931,74.6336499 275.520001,74.6336499 L274.479999,74.6336499 C260.960069,74.6336499 250,85.5937186 250,99.1136485 L250,159.233601 C250,172.753531 239.039931,183.7136 225.520001,183.7136 L224.479999,183.7136 C210.960069,183.7136 200,172.753531 200,159.233601 L200,142.379532 C200,128.859603 189.039931,117.899534 175.520001,117.899534 L174.479999,117.899534 C160.960069,117.899534 150,128.859603 150,142.379532 L150,236.737776 C150,250.257706 139.039931,261.217775 125.520001,261.217775 L124.479999,261.217775 C110.960069,261.217775 100,250.257706 100,236.737776 L100,120.74659 C100,107.226661 89.0399313,96.2665919 75.5200015,96.2665919 L74.4799985,96.2665919 C60.9600687,96.2665919 50,107.226661 50,120.74659 L50,150.622026 C50,164.141956 39.0399313,175.102025 25.5200015,175.102025 L24.4799985,175.102025 C10.9600687,175.102025 1.96678788e-14,164.141956 0,150.622026 L0,0 L50,0 L100,2.84217094e-14 L150,5.68434189e-14 L200,1.70530257e-13 L250,-5.68434189e-14 L300,1.56319402e-13 L350,0 L400,-2.84217094e-14 L450,0 L500,1.42108547e-13 L550,5.68434189e-14 L600,-9.9475983e-14 L650,-5.68434189e-14 L700,2.84217094e-13 L750,5.68434189e-14 L800,1.42108547e-13 L850,0 L900,3.55271368e-13 L950,5.68434189e-14 L1000,2.84217094e-13 L1050,5.68434189e-14 L1100,2.7000624e-13 L1150,5.68434189e-14 L1200,1.70530257e-13 L1250,-5.68434189e-14 Z M424.479999,307.6611 L425.520001,307.6611 C439.039931,307.6611 450,318.621169 450,332.141099 L450,346.332651 C450,359.852581 439.039931,370.81265 425.520001,370.81265 L424.479999,370.81265 C410.960069,370.81265 400,359.852581 400,346.332651 L400,332.141099 C400,318.621169 410.960069,307.6611 424.479999,307.6611 Z M924.479999,238.7685 L925.520001,238.7685 C939.039931,238.7685 950,249.728569 950,263.248499 L950,309.015827 C950,322.535756 939.039931,333.495825 925.520001,333.495825 L924.479999,333.495825 C910.960069,333.495825 900,322.535756 900,309.015827 L900,263.248499 C900,249.728569 910.960069,238.7685 924.479999,238.7685 Z" fill="#F6F6EF"></path>
      <path d="M340,182 C340,190.274545 333.269091,197 325,197 L325,188.818182 C328.758182,188.818182 331.818182,185.763636 331.818182,182 L340,182 Z M240,158 C240,166.274545 233.269091,173 225,173 L225,164.818182 C228.758182,164.818182 231.818182,161.763636 231.818182,158 L240,158 Z M140,236 C140,244.274545 133.269091,251 125,251 L125,242.818182 C128.758182,242.818182 131.818182,239.763636 131.818182,236 L140,236 Z M40,150 C40,158.274545 33.2690909,165 25,165 L25,156.818182 C28.7581818,156.818182 31.8181818,153.763636 31.8181818,150 L40,150 Z M440,265 C440,273.274545 433.269091,280 425,280 L425,271.818182 C428.758182,271.818182 431.818182,268.763636 431.818182,265 L440,265 Z M540,136 C540,144.274545 533.269091,151 525,151 L525,142.818182 C528.758182,142.818182 531.818182,139.763636 531.818182,136 L540,136 Z M640,179 C640,187.274545 633.269091,194 625,194 L625,185.818182 C628.758182,185.818182 631.818182,182.763636 631.818182,179 L640,179 Z M740,236 C740,244.274545 733.269091,251 725,251 L725,242.818182 C728.758182,242.818182 731.818182,239.763636 731.818182,236 L740,236 Z M840,161 C840,169.274545 833.269091,176 825,176 L825,167.818182 C828.758182,167.818182 831.818182,164.763636 831.818182,161 L840,161 Z M940,196 C940,204.274545 933.269091,211 925,211 L925,202.818182 C928.758182,202.818182 931.818182,199.763636 931.818182,196 L940,196 Z M940,308 C940,316.274545 933.269091,323 925,323 L925,314.818182 C928.758182,314.818182 931.818182,311.763636 931.818182,308 L940,308 Z M1040,236 C1040,244.274545 1033.26909,251 1025,251 L1025,242.818182 C1028.75818,242.818182 1031.81818,239.763636 1031.81818,236 L1040,236 Z M1140,150 C1140,158.274545 1133.26909,165 1125,165 L1125,156.818182 C1128.75818,156.818182 1131.81818,153.763636 1131.81818,150 L1140,150 Z M1241,273 C1241,281.274545 1234.26909,288 1226,288 L1226,279.818182 C1229.75818,279.818182 1232.81818,276.763636 1232.81818,273 L1241,273 Z M1340,196 C1340,204.274545 1333.26909,211 1325,211 L1325,202.818182 C1328.75818,202.818182 1331.81818,199.763636 1331.81818,196 L1340,196 Z M1440,236 C1440,244.274545 1433.26909,251 1425,251 L1425,242.818182 C1428.75818,242.818182 1431.81818,239.763636 1431.81818,236 L1440,236 Z M1540,150 C1540,158.274545 1533.26909,165 1525,165 L1525,156.818182 C1528.75818,156.818182 1531.81818,153.763636 1531.81818,150 L1540,150 Z M1640,236 C1640,244.274545 1633.26909,251 1625,251 L1625,242.818182 C1628.75818,242.818182 1631.81818,239.763636 1631.81818,236 L1640,236 Z M440,346 C440,354.274545 433.269091,361 425,361 L425,352.818182 C428.758182,352.818182 431.818182,349.763636 431.818182,346 L440,346 Z" fill="#FFFFFF"></path>
    </g>
  </g>
</svg>

<svg class="u-max-full-width no-box-shadow" viewBox="0 0 1650 500" xmlns="http://www.w3.org/2000/svg">
    <g fill="none">
        <path d="M1250 0h400v236.738c0 13.52-10.96 24.48-24.48 24.48h-1.04c-13.52 0-24.48-10.96-24.48-24.48V147.48c0-13.52-10.96-24.48-24.48-24.48h-1.04c-13.52 0-24.48 10.96-24.48 24.48v3.142c0 13.52-10.96 24.48-24.48 24.48h-1.04c-13.52 0-24.48-10.96-24.48-24.48v-29.875c0-13.52-10.96-24.48-24.48-24.48h-1.04c-13.52 0-24.48 10.96-24.48 24.48v115.99c0 13.52-10.96 24.48-24.48 24.48h-1.04c-13.52 0-24.48-10.96-24.48-24.48V142.38c0-13.52-10.96-24.48-24.48-24.48h-1.04c-13.52 0-24.48 10.96-24.48 24.48v54.17c0 13.52-10.96 24.48-24.48 24.48h-1.04c-13.52 0-24.48-10.96-24.48-24.48v-10.905c0-13.52-10.96-24.48-24.48-24.48h-1.04c-13.52 0-24.48 10.96-24.48 24.48v88.41c0 13.52-10.96 24.48-24.48 24.48h-1.04c-13.52 0-24.48-10.96-24.48-24.48V142.38c0-13.52-10.96-24.48-24.48-24.48h-1.04c-13.52 0-24.48 10.96-24.48 24.48v8.242c0 13.52-10.96 24.48-24.48 24.48h-1.04c-13.52 0-24.48-10.96-24.48-24.48V99.114c0-13.52-10.96-24.48-24.48-24.48h-1.04c-13.52 0-24.48 10.96-24.48 24.48v137.624c0 13.52-10.96 24.48-24.48 24.48h-1.04c-13.52 0-24.48-10.96-24.48-24.48V133.726c0-13.52-10.96-24.48-24.48-24.48h-1.04c-13.52 0-24.48 10.96-24.48 24.48v62.824c0 13.52-10.96 24.48-24.48 24.48h-1.04c-13.52 0-24.48-10.96-24.48-24.48v-75.803c0-13.52-10.96-24.48-24.48-24.48h-1.04c-13.52 0-24.48 10.96-24.48 24.48v41.357c0 13.52-10.96 24.48-24.48 24.48h-1.04c-13.52 0-24.48-10.96-24.48-24.48v1.908c0-13.52-10.96-24.48-24.48-24.48h-1.04c-13.52 0-24.48 10.96-24.48 24.48v72.726c0 13.52-10.96 24.48-24.48 24.48h-1.04c-13.52 0-24.48-10.96-24.48-24.48V99.114c0-13.52-10.96-24.48-24.48-24.48h-1.04c-13.52 0-24.48 10.96-24.48 24.48v80.213c0 13.52-10.96 24.48-24.48 24.48h-1.04c-13.52 0-24.48-10.96-24.48-24.48v-58.58c0-13.52-10.96-24.48-24.48-24.48h-1.04c-13.52 0-24.48 10.96-24.48 24.48v15.522c0 13.52-10.96 24.48-24.48 24.48h-1.04c-13.52 0-24.48-10.96-24.48-24.48V99.114c0-13.52-10.96-24.48-24.48-24.48h-1.04c-13.52 0-24.48 10.96-24.48 24.48v166.329c0 13.52-10.96 24.48-24.48 24.48h-1.04c-13.52 0-24.48-10.96-24.48-24.48v-101.43c0-13.52-10.96-24.48-24.48-24.48h-1.04c-13.52 0-24.48 10.96-24.48 24.48v18.185c0 13.52-10.96 24.48-24.48 24.48h-1.04c-13.52 0-24.48-10.96-24.48-24.48V99.114c0-13.52-10.96-24.48-24.48-24.48h-1.04c-13.52 0-24.48 10.96-24.48 24.48v60.12c0 13.52-10.96 24.48-24.48 24.48h-1.04c-13.52 0-24.48-10.96-24.48-24.48V142.38c0-13.52-10.96-24.48-24.48-24.48h-1.04c-13.52 0-24.48 10.96-24.48 24.48v94.358c0 13.52-10.96 24.48-24.48 24.48h-1.04c-13.52 0-24.48-10.96-24.48-24.48V120.747c0-13.52-10.96-24.48-24.48-24.48h-1.04c-13.52 0-24.48 10.96-24.48 24.48v29.875c0 13.52-10.96 24.48-24.48 24.48h-1.04c-13.52 0-24.48-10.96-24.48-24.48V0h1250zM424.48 307.661h1.04c13.52 0 24.48 10.96 24.48 24.48v14.192c0 13.52-10.96 24.48-24.48 24.48h-1.04c-13.52 0-24.48-10.96-24.48-24.48V332.14c0-13.52 10.96-24.48 24.48-24.48zm500-68.893h1.04c13.52 0 24.48 10.96 24.48 24.48v45.768c0 13.52-10.96 24.48-24.48 24.48h-1.04c-13.52 0-24.48-10.96-24.48-24.48v-45.768c0-13.52 10.96-24.48 24.48-24.48z" fill="#F6F6EF"/>
        <path d="M340 182c0 8.275-6.73 15-15 15v-8.182a6.824 6.824 0 0 0 6.818-6.818H340zm-100-24c0 8.275-6.73 15-15 15v-8.182a6.824 6.824 0 0 0 6.818-6.818H240zm-100 78c0 8.275-6.73 15-15 15v-8.182a6.824 6.824 0 0 0 6.818-6.818H140zM40 150c0 8.275-6.73 15-15 15v-8.182A6.824 6.824 0 0 0 31.818 150H40zm400 115c0 8.275-6.73 15-15 15v-8.182a6.824 6.824 0 0 0 6.818-6.818H440zm100-129c0 8.275-6.73 15-15 15v-8.182a6.824 6.824 0 0 0 6.818-6.818H540zm100 43c0 8.275-6.73 15-15 15v-8.182a6.824 6.824 0 0 0 6.818-6.818H640zm100 57c0 8.275-6.73 15-15 15v-8.182a6.824 6.824 0 0 0 6.818-6.818H740zm100-75c0 8.275-6.73 15-15 15v-8.182a6.824 6.824 0 0 0 6.818-6.818H840zm100 35c0 8.275-6.73 15-15 15v-8.182a6.824 6.824 0 0 0 6.818-6.818H940zm0 112c0 8.275-6.73 15-15 15v-8.182a6.824 6.824 0 0 0 6.818-6.818H940zm100-72c0 8.275-6.73 15-15 15v-8.182a6.824 6.824 0 0 0 6.818-6.818H1040zm100-86c0 8.275-6.73 15-15 15v-8.182a6.824 6.824 0 0 0 6.818-6.818H1140zm101 123c0 8.275-6.73 15-15 15v-8.182a6.824 6.824 0 0 0 6.818-6.818H1241zm99-77c0 8.275-6.73 15-15 15v-8.182a6.824 6.824 0 0 0 6.818-6.818H1340zm100 40c0 8.275-6.73 15-15 15v-8.182a6.824 6.824 0 0 0 6.818-6.818H1440zm100-86c0 8.275-6.73 15-15 15v-8.182a6.824 6.824 0 0 0 6.818-6.818H1540zm100 86c0 8.275-6.73 15-15 15v-8.182a6.824 6.824 0 0 0 6.818-6.818H1640zM440 346c0 8.275-6.73 15-15 15v-8.182a6.824 6.824 0 0 0 6.818-6.818H440z" fill="#FFF"/>
    </g>
</svg>
